X:1
T:Drumin's Strathspey
T:Drumin's Strathspey
T:William Marshall
C:William Marshall
L:1/8
Q:1/8=128
M:4/4
K:D
V:1 treble 
V:1
|: F | D/E/F/G/ A>F D/D/D B2 | A<d A>F G<E E>F | D/E/F/G/ A>F D/D/D B2 | A<d A>G F<D DF | %5
 D/E/F/G/ A>F D/D/D B2 | A<d A>F G<E E>F | D/E/F/G/ A>F D/D/D B2 | A<d A>G F<D Dg | %9
 f>e d>e d/d/d f2 | d>e f>d e<E E>g | f>e d>e d/d/d f2 | B<d A>G F<D Dg | f>e d>e d/d/d f2 | %14
 d>e f>d e<E E>g | f<b e>f d>e f>e | B<d A>G F<D D :| %17

